!!!COM: Morley, Thomas
!!!OTL: Laboravi in Gemitu Meo
!!!YOR: from 'Collected Motets' edited by H.K. Andrews & Thurston Dart, pp.87-97
!!!YOO: Stainer & Bell (London)
!!!YOY: 1959
**kern	**kern	**kern	**kern	**kern	**kern
*ICvox	*ICvox	*ICvox	*ICvox	*ICvox	*ICvox
! Bassus	! Tenor	! Altus	! Altus	! Cantus	! Cantus
*M4/4	*M4/4	*M4/4	*M4/4	*M4/4	*M4/4
=1	=1	=1	=1	=1	=1
1r	1r	1r	1r	1r	2cc
.	.	.	.	.	4dd
.	.	.	.	.	[{4ee-
=2	=2	=2	=2	=2	=2
1r	1r	1r	1r	2cc	4ee-]
.	.	.	.	.	8dd
.	.	.	.	.	8cc
.	.	.	.	4dd	8b-
.	.	.	.	.	8a
.	.	.	.	[{4ee-	8g
.	.	.	.	.	8f
=3	=3	=3	=3	=3	=3
1r	1r	1r	1r	4ee-]	4.e-
.	.	.	.	8dd	.
.	.	.	.	8cc	8f
.	.	.	.	8b-	2g}
.	.	.	.	8a	.
.	.	.	.	8g	.
.	.	.	.	8f	.
=4	=4	=4	=4	=4	=4
1r	2r	1r	4r	4.e-	2c
.	.	.	4g	.	.
.	.	.	.	8f	.
.	4r	.	[2b-	2g}	2r
.	[4g	.	.	.	.
=5	=5	=5	=5	=5	=5
1r	4g]	2r	4b-]	1c	4r
.	2f	.	2a	.	2cc
.	.	4r	.	.	.
.	4e-	4g	[4g	.	[4ee-
=6	=6	=6	=6	=6	=6
1r	4c	4a	4g]	1r	4ee-]
.	{4d	{2b-	4f	.	2dd
.	2e-}	.	4g	.	.
.	.	8a	4g	.	4cc
.	.	8g	.	.	.
=7	=7	=7	=7	=7	=7
1r	2d	8f	4a	1r	{2.dd
.	.	8e-	.	.	.
.	.	8d	{2b-	.	.
.	.	8c	.	.	.
.	2r	4.B-	.	.	.
.	.	.	8a	.	8cc
.	.	8c	8g	.	8b-
=8	=8	=8	=8	=8	=8
1r	4r	2d}	8f#	4r	8a
.	.	.	4g	.	8g
.	2d	.	.	2dd	4a}
.	.	.	8f#	.	.
.	.	[2G	8b-	.	2g
.	.	.	8a	.	.
.	[{4e-	.	8g	[4cc	.
.	.	.	8fn	.	.
=9	=9	=9	=9	=9	=9
4r	4e-]	2G]	4.g	4cc]	2r
2G	4d	.	.	4b-	.
.	.	.	16f	.	.
.	.	.	16e-	.	.
.	4B-}	2r	8d	4g	4r
.	.	.	8en	.	.
[4F	4c	.	[4f	{4a	4cc
=10	=10	=10	=10	=10	=10
4F]	4F	1r	4f}]	8a	4dd
.	.	.	.	8g	.
4E-	{4G	.	4B-	2g	{2ee-
4C	2A}	.	4r	.	.
4D	.	.	4d	4f#}	8dd
.	.	.	.	.	8cc
=11	=11	=11	=11	=11	=11
2GG	2G	2r	4e-	4g	8b-
.	.	.	.	.	8a
.	.	.	4d	2dd	8g
.	.	.	.	.	8f
2r	2r	4r	2g	.	4.e-
.	.	4c	.	[4cc	.
.	.	.	.	.	8f
=12	=12	=12	=12	=12	=12
1r	1r	2.e-	4r	4cc]	2g}
.	.	.	2g	4b-	.
.	.	.	.	4g	4c
.	.	4f	[4f	4a	[4cc
=13	=13	=13	=13	=13	=13
1r	1r	4g	4f]	2cc	4cc]
.	.	2g	4e-	.	2ee-
.	.	.	4c	2r	.
.	.	[4b-	4d	.	4dd
=14	=14	=14	=14	=14	=14
2F	4r	4b-]	2f	1r	2cc
.	4c	4a-	.	.	.
4G	[2e-	4g	{4B-	.	2r
[{4A-	.	{8f	[4c	.	.
.	.	8e-	.	.	.
=15	=15	=15	=15	=15	=15
4A-]	4e-]	2a-}	4c]	4r	1r
8G	4f	.	8B-	4cc	.
8F	.	.	8A-	.	.
8E-	4g	4g	4B-}	[2ee-	.
8D	.	.	.	.	.
8C	{4G	[4g	[4c	.	.
8BB-	.	.	.	.	.
=16	=16	=16	=16	=16	=16
4.AA-	2.A-	4g]	4c]	4ee-]	2r
.	.	4f	2c	4dd	.
8BB-	.	.	.	.	.
2C}	.	4e-	.	4cc	4r
.	4G}	4c	[4e-	[{4cc	[4g
=17	=17	=17	=17	=17	=17
4GG	2G	2g	4e-]	8cc]	4g]
.	.	.	.	8b-	.
2G	.	.	4d	4b-}	2b-
.	4r	4en	2c	2cc	.
[4F	4c	4f	.	.	4a
=18	=18	=18	=18	=18	=18
4F]	4d	{8b-	4r	1r	{8g
.	.	8a	.	.	16a
.	.	.	.	.	16b-
4E-	{2e-	8g	4g	.	2cc}
.	.	8f	.	.	.
4C	.	4e-}	4a	.	.
4D	4d}	[4f	[{4b-	.	4ff
=19	=19	=19	=19	=19	=19
2F	2c	4f]	4b-]	4r	2ff
.	.	{8f	8a	2cc	.
.	.	8g	8g	.	.
2r	2r	4a}	8f	.	4r
.	.	.	8e-	.	.
.	.	4b-	8d	[4dd	4f
.	.	.	8c	.	.
=20	=20	=20	=20	=20	=20
2G	1r	4r	2B-}	4dd]	{8b-
.	.	.	.	.	8a
.	.	2g	.	{2ee-	8g
.	.	.	.	.	8f}
2A-	.	.	2c	.	2e-
.	.	[4f	.	8dd	4f
.	.	.	.	8cc	.
=21	=21	=21	=21	=21	=21
4G	1r	4f]	4r	8b-	2g
.	.	.	.	8a	.
2C	.	4e-	4G	8g	.
.	.	.	.	8f	.
.	.	2c	2A-	4.e-	2cc
[{4c	.	.	.	.	.
.	.	.	.	8f	.
=22	=22	=22	=22	=22	=22
8c]	2r	2d	4G	2g}	1r
8Bn	.	.	.	.	.
4B}	.	.	4G	.	.
4c	4r	4c	2e-	2g	.
4C	[4c	4g	.	.	.
=23	=23	=23	=23	=23	=23
{8F	4c]	4a	4f	1r	1r
8E-	.	.	.	.	.
8D	2d	{4.b-	2f	.	.
8C}	.	.	.	.	.
4BB-	.	.	.	.	.
.	.	8a	.	.	.
4C	[{4e-	[4g	4e-	.	.
=24	=24	=24	=24	=24	=24
2AA-	4e-]	4g]	4c	2r	2r
.	8d	4f}	4c	.	.
.	8c	.	.	.	.
2GG	8B-	2g	{4.d	4r	2dd
.	8A	.	.	.	.
.	8G	.	.	[4dd	.
.	8F	.	16e-	.	.
.	.	.	16f	.	.
=25	=25	=25	=25	=25	=25
1r	4.E-	2r	1g}	4dd]	2.ee-
.	.	.	.	2cc	.
.	8F	.	.	.	.
.	2G}	4r	.	.	.
.	.	[4g	.	4b-	4dd
=26	=26	=26	=26	=26	=26
2r	4C	4g]	2e-	1ee-	4cc
.	4c	2a-	.	.	4cc
4r	[2e-	.	2r	.	[2b-
4G	.	4g	.	.	.
=27	=27	=27	=27	=27	=27
2.B-	4e-]	2f	1r	4r	2b-]
.	4d	.	.	2dd	.
.	4B-	2f	.	.	2r
4A	4c	.	.	[4cc	.
=28	=28	=28	=28	=28	=28
2.G	4d	2g	2r	4cc]	2r
.	4d	.	.	4b-	.
.	4G	2r	2d	4b-	4r
{4F	4A	.	.	4a	[4dd
=29	=29	=29	=29	=29	=29
2E-}	4B-	2r	2.e-	4g	4dd]
.	4G	.	.	2g	2cc
2BB-	2B-	4r	.	.	.
.	.	4B-	4d	4f	4b-
=30	=30	=30	=30	=30	=30
1r	1r	{8c	4c	2e-	2g
.	.	8d	.	.	.
.	.	8e-	4c	.	.
.	.	8c	.	.	.
.	.	8d	[2B-	2f	{4b-
.	.	8e-	.	.	.
.	.	[4f	.	.	4a-
=31	=31	=31	=31	=31	=31
2r	2r	8f]	2B-]	1b-	2g}
.	.	8e-	.	.	.
.	.	2e-	.	.	.
4r	4r	.	2B-	.	2f
4BB-	4F	4d}	.	.	.
=32	=32	=32	=32	=32	=32
{8E-	{8G	2e-	{8c	1r	1r
8F	8A-	.	8d	.	.
8G	8B-	.	8e-	.	.
8E-	8G	.	8c	.	.
8F	8A-	2r	8d	.	.
8G	8B-	.	8e-	.	.
[4A-	[4c	.	[4f	.	.
=33	=33	=33	=33	=33	=33
8A-]	8c]	1r	8f]	1r	1r
8G	8B-	.	8e-	.	.
4E-	4B-	.	2e-	.	.
2F}	4.A-	.	.	.	.
.	.	.	4d}	.	.
.	16G	.	.	.	.
.	16A-}	.	.	.	.
=34	=34	=34	=34	=34	=34
2E-	2B-	2r	2e-	4r	4r
.	.	.	.	4g	4b-
2r	2r	4r	2r	{8a	{8cc
.	.	.	.	8b-	8dd
.	.	4c	.	8cc	8ee-
.	.	.	.	8a	8cc
=35	=35	=35	=35	=35	=35
1r	1r	4g	1r	8bn	8dd
.	.	.	.	8cc	8ee-
.	.	4f	.	4.dd	4.ff
.	.	4g	.	.	.
.	.	.	.	8cc	8ee-
.	.	4a-	.	[4cc	4cc}
=36	=36	=36	=36	=36	=36
1r	4r	4g	2r	4cc]	2dd
.	4G	4g	.	4bn}	.
.	{8A	4f	4r	2cc	2r
.	8B-	.	.	.	.
.	8c	4e-	4c	.	.
.	8A	.	.	.	.
=37	=37	=37	=37	=37	=37
4r	8B-	2d	4g	1r	1r
.	8c	.	.	.	.
4D	4.dd	.	4f	.	.
4E-	.	4r	4g	.	.
.	8c	.	.	.	.
{4F	[4c	4f	4a-	.	.
=38	=38	=38	=38	=38	=38
2G}	4c]	4e-	{4.g	1r	2r
.	4Bn}	{4d	.	.	.
.	.	.	8f	.	.
2C	2c	8c	4e-}	.	4r
.	.	8d	.	.	.
.	.	8e-	4c	.	4g
.	.	8f}	.	.	.
=39	=39	=39	=39	=39	=39
1r	1r	2g	{8c	4r	{8e-
.	.	.	8d	.	8f
.	.	.	8e-	4g	8g
.	.	.	8c-	.	8e-
.	.	2r	8d	4dd	8f
.	.	.	8e-	.	8g
.	.	.	[4f	4cc	[4a-
=40	=40	=40	=40	=40	=40
2r	4r	2r	8f]	4dd	8a-]
.	.	.	8e-	.	8g
.	4c	.	4c}	4ee-	2g
4r	4B-	4r	[2d	[2dd	.
4C	4A	4d	.	.	4f#}
=41	=41	=41	=41	=41	=41
{8G	2G	{8B-	4d]	2dd]	2g
8A	.	8c	.	.	.
8B-	.	8d	4g	.	.
8G	.	8B-	.	.	.
8A	2r	8c	4f	4r	2r
8B-	.	8d	.	.	.
[4c	.	[4e-	{8e-	4g	.
.	.	.	8d	.	.
=42	=42	=42	=42	=42	=42
8c]	1r	8e-]	4c	4a	1r
8B-	.	8d	.	.	.
4G	.	2g	4d	{4b-	.
2A-}	.	.	4.c	2cc}	.
.	.	4f}	.	.	.
.	.	.	16B-	.	.
.	.	.	16c}	.	.
=43	=43	=43	=43	=43	=43
2G	4r	2g	4d	2bn	4r
.	4G	.	4d	.	4g
4r	{8c	2r	{8e-	2r	{8an
.	8d	.	8f	.	8b-
4C	8e-	.	[4g	.	8cc
.	8c	.	.	.	8a
=44	=44	=44	=44	=44	=44
4G	8d	1r	8g]	2r	8b-
.	8e-	.	8e-	.	8cc
4F	4.f	.	4a-	.	4.dd
4G	.	.	4g}	4r	.
.	8e-	.	.	.	8cc
4A-	4c	.	4f	4ff	[4cc
=45	=45	=45	=45	=45	=45
2G	2g}	4r	2r	4ee-	8cc]
.	.	.	.	.	16b-
.	.	.	.	.	16a
.	.	4d	.	4dd	4b-}
2r	2c	{8e-	4r	4cc	4g
.	.	8f	.	.	.
.	.	8g	4e-	8r	4gg
.	.	8e-	.	8g	.
=46	=46	=46	=46	=46	=46
2r	2r	4f}	4d	{8a	4ff
.	.	.	.	8b-	.
.	.	2g	4c	8cc	4ee-
.	.	.	.	8a	.
4r	4r	.	2g	8b-	2dd
.	.	.	.	8cc	.
4G	4B-	4d	.	[4dd	.
=47	=47	=47	=47	=47	=47
4F	4A	4f	4r	8dd]	1r
.	.	.	.	8cc	.
{4E-	4G	4g	4c	2cc	.
2D}	4A	2f	{8d	.	.
.	.	.	8e-	.	.
.	4F	.	8f	4bn}	.
.	.	.	8d	.	.
=48	=48	=48	=48	=48	=48
2C	4G	1r	8e-	4cc	1r
.	.	.	8f	.	.
.	4c	.	4.g	4ee-	.
4r	4B-	.	.	4dd	.
.	.	.	8f	.	.
4AA	{4A	.	[4f	4cc	.
=49	=49	=49	=49	=49	=49
4BB-	2G	2r	4f]	4dd	1r
4C	.	.	4en}	{8cc	.
.	.	.	.	8b-	.
4D	2F}	4r	2f	2a	.
4F	.	4c	.	.	.
=50	=50	=50	=50	=50	=50
4E-	2B-	4g	4r	2b-}	2r
4D	.	4f	4d	.	.
[2C	2r	4g	4en	[2cc	4r
.	.	4a-	4f	.	[4ff
=51	=51	=51	=51	=51	=51
2C]	1r	2g	4g	4cc]	4ff]
.	.	.	4c	4cc	4ee-
2r	.	4r	4g	4b-	2dd
.	.	4d	4f	4a	.
=52	=52	=52	=52	=52	=52
1r	4r	{8e-	4g	2g	2b-
.	.	8f	.	.	.
.	4G	8g	4b-	.	.
.	.	8e-	.	.	.
.	4d	8f	2a	2r	4r
.	.	8g	.	.	.
.	4c	[4an	.	.	4cc
=53	=53	=53	=53	=53	=53
4r	4d	8a]	1r	1r	4b-
.	.	8g	.	.	.
4c	4e-	2g	.	.	{4cc
4B-	4d	.	.	.	8dd
.	.	.	.	.	8cc
{4A	4f	4f#}	.	.	[4cc
=54	=54	=54	=54	=54	=54
2G}	4e-	2g	2r	4r	4cc]
.	4d	.	.	4dd	4bn}
2C	2c	2g	4r	2ee-	2cc
.	.	.	4g	.	.
=55	=55	=55	=55	=55	=55
2r	1r	4f	4a-	{4dd	1r
.	.	4e-	4g	2cc	.
[2G	.	2d	2g	.	.
.	.	.	.	8bn	.
.	.	.	.	8a	.
=56	=56	=56	=56	=56	=56
4G]	{2d	1r	1g	2bn	2r
4F	.	.	.	.	.
2En	4.c}	.	.	4cc	4r
.	.	.	.	4g}	[4cc
.	8B-	.	.	.	.
=57	=57	=57	=57	=57	=57
{4.F	4.A	4r	4f	2a	4cc]
.	.	2f	4c	.	4cc
8E-	8G	.	.	.	.
2D}	2F	.	2d	2r	2bn
.	.	4f	.	.	.
=58	=58	=58	=58	=58	=58
2C	2c	2en	2G	4r	{4cc
.	.	.	.	2cc	4g
2r	[2F	2f	2r	.	4a
.	.	.	.	4b-	4b-}
=59	=59	=59	=59	=59	=59
1r	4F]	[1c	4r	4a	1cc
.	4En	.	2g	{4.b-	.
.	2F	.	.	.	.
.	.	.	.	8a	.
.	.	.	4f	4a}	.
=60	=60	=60	=60	=60	=60
2.C	[1G	2c]	4en	1g	4r
.	.	.	{4.f	.	2cc
.	.	4r	.	.	.
.	.	.	8e-	.	.
4C	.	[4g	4e-}	.	4cc
=61	=61	=61	=61	=61	=61
2BBn	1G]	4g]	2d	4r	2dd
.	.	4f	.	{2dd	.
2C	.	4e-	[2g	.	2ee-
.	.	4c	.	[4cc	.
=62	=62	=62	=62	=62	=62
[1GG	1G	[1d	1g]	4cc}]	4dd
.	.	.	.	{8bn	2dd
.	.	.	.	8a	.
.	.	.	.	4b}	.
.	.	.	.	[4dd	4g
=63	=63	=63	=63	=63	=63
1GG]	1r	1d]	2g	4dd]	{8.b-
.	.	.	.	.	16cc
.	.	.	.	4g	4dd}
.	.	.	4r	{4.b-	2g
.	.	.	[4g	.	.
.	.	.	.	8cc	.
=64	=64	=64	=64	=64	=64
1r	1r	1r	4g]	2dd}	2r
.	.	.	4d	.	.
.	.	.	{8.e-	4g	4r
.	.	.	16f	.	.
.	.	.	4g}	4bn	4dd
=65	=65	=65	=65	=65	=65
1r	1r	4r	2c	{8cc	{8ee-
.	.	.	.	8dd	8ff
.	.	2g	.	8ee-	8gg
.	.	.	.	8dd	8ff
.	.	.	2r	8cc	8ee-
.	.	.	.	8b-	8dd
.	.	4c	.	8cc	8ee-
.	.	.	.	16b-	16dd
.	.	.	.	16a	16cc
=66	=66	=66	=66	=66	=66
2r	1r	{4.e-	2r	8g	8b-
.	.	.	.	8c	8g
.	.	.	.	2cc}	2ee-}
.	.	8f	.	.	.
[2G	.	2g}	4r	.	.
.	.	.	4d	4bn	4dd
=67	=67	=67	=67	=67	=67
4G]	1r	2d	{8g	4r	4r
.	.	.	8a	.	.
4D	.	.	8b-	2dd	2ff
.	.	.	8a	.	.
{4.E-	.	2r	8g	.	.
.	.	.	8f	.	.
.	.	.	4g}	4cc	4ee-
8F	.	.	.	.	.
=68	=68	=68	=68	=68	=68
1G}	1r	4r	2g	4bn	4dd
.	.	2g	.	{4.cc	{4.ee-
.	.	.	4r	.	.
.	.	.	.	8b-	8dd
.	.	4d	4g	4b-}	4dd
=69	=69	=69	=69	=69	=69
4C	4r	2e-	{4.g	2cc	{8cc
.	.	.	.	.	8dd
4C	2g	.	.	.	8ee-
.	.	.	8a	.	8cc}
{8G	.	4d	8b-	2r	2dd
8A	.	.	8a	.	.
8B-	4G	4d	8g	.	.
8A	.	.	8f	.	.
=70	=70	=70	=70	=70	=70
8G	{4.B-	{8g	8e-	1r	2r
8F	.	8a	16d	.	.
.	.	.	16c	.	.
8G	.	8b-	4.B-	.	.
16F	8c	16a	.	.	.
16E-	.	16g	.	.	.
2D}	2d}	8f#	.	.	4r
.	.	4g	16A	.	.
.	.	.	16G	.	.
.	.	.	4A}	.	4dd
.	.	8f#}	.	.	.
=71	=71	=71	=71	=71	=71
2GG	4B-	4g	2G	4r	4dd
.	4G	2g	.	2ee-	4cc
2G	2G	.	4r	.	2bn
.	.	4f	4d	4dd	.
=72	=72	=72	=72	=72	=72
{4C	1G	4e-	{8g	4cc	2r
.	.	.	8a	.	.
4BB-	.	{4.f	8b-	{2dd	.
.	.	.	8a	.	.
2C}	.	.	8g	.	4r
.	.	8e-	8f	.	.
.	.	4e-}	8g	[4cc	[4g
.	.	.	16f	.	.
.	.	.	16e-	.	.
=73	=73	=73	=73	=73	=73
2G	4r	1g	2d}	4cc}]	4g]
.	4G	.	.	4bn	4d
2r	{8c	.	2c	4cc	{4.e-
.	8d	.	.	.	.
.	8e-	.	.	{8cc	.
.	8d	.	.	8dd	8f
=74	=74	=74	=74	=74	=74
1r	8c	4r	1r	8ee-	2g}
.	8B-	.	.	8dd	.
.	8c	2cc	.	8ee-	.
.	16B-	.	.	16dd	.
.	16A	.	.	16cc	.
.	2G}	.	.	4ee-}	4g
.	.	4b-	.	4dd	4g
=75	=75	=75	=75	=75	=75
1r	4F	4a	4r	1r	{8cc
.	.	.	.	.	8dd
.	{4E-	{4.b-	2g	.	8ee-
.	.	.	.	.	8dd
.	2F}	.	.	.	8cc
.	.	8a	.	.	8b-
.	.	4a}	[4f	.	4cc}
=76	=76	=76	=76	=76	=76
2.C	2G	1g	4f]	1r	4cc
.	.	.	2e-	.	4r
.	2G	.	.	.	4r
4BB-	.	.	{8d	.	4g
.	.	.	8e-	.	.
=77	=77	=77	=77	=77	=77
4AA	1F	2r	8f	4r	{4cc
.	.	.	8e-	.	.
{4.BB-	.	.	8d	2dd	4f}
.	.	.	8c	.	.
.	.	4r	4B-	.	2f
8AA	.	.	.	.	.
4AA}	.	[4f	4c}	4cc	.
=78	=78	=78	=78	=78	=78
4GG	1G	4f]	1g	2.b-	1r
2G	.	4e-	.	.	.
.	.	4d	.	.	.
4C	.	[{4e-	.	[{4cc	.
=79	=79	=79	=79	=79	=79
{4.D	2r	8e-]	1f	8cc]	4r
.	.	8d	.	8b-	.
.	.	4d}	.	2b-	2ff
8E-	.	.	.	.	.
2F}	4r	2c	.	.	.
.	4F	.	.	4a}	4cc
=80	=80	=80	=80	=80	=80
4BB-	{8B-	4r	2f	1b-	{4dd
.	8c	.	.	.	.
4BB-	8d	4f	.	.	.
.	8c	.	.	.	.
{8E-	8B-	2g	4r	.	4ee-
8F	8A	.	.	.	.
8G	8B-	.	4d	.	4dd
8F	16A	.	.	.	.
.	16G	.	.	.	.
=81	=81	=81	=81	=81	=81
8E-	2c}	1G	4e-	2r	2cc}
8D	.	.	.	.	.
8E-	.	.	4e-	.	.
16D	.	.	.	.	.
16C	.	.	.	.	.
2G}	2B-	.	4d	4r	2dd
.	.	.	4d	[4dd	.
=82	=82	=82	=82	=82	=82
2G	4r	4g	{4.b-	8dd]	4r
.	.	.	.	{8g	.
.	2B-	4d	.	8.b-}	4dd
.	.	.	16a	.	.
.	.	.	16g	{16cc	.
2r	.	{8d	8f	2dd}	{8b-
.	.	8e-	8g	.	8cc
.	4F	8f	4a	.	8dd
.	.	8e-	.	.	8cc
=83	=83	=83	=83	=83	=83
1r	{4.G	8d	2g}	4dd	8b-
.	.	16c	.	.	8a
.	.	16B-	.	.	.
.	.	4e-}	.	4g	4.b-
.	8A	.	.	.	.
.	2B-}	4d	[2f	{8dd	.
.	.	.	.	8ee-	16a
.	.	.	.	.	16g
.	.	4d	.	8ff	8f
.	.	.	.	8ee-	8g}
=84	=84	=84	=84	=84	=84
2.D	4F	{4.d	2f]	8dd	2a
.	.	.	.	8cc	.
.	4A	.	.	8dd	.
.	.	8e-	.	16cc	.
.	.	.	.	16b-	.
.	{8d	8f	2r	8a	2r
.	8e-	16e-	.	8g	.
.	.	16d	.	.	.
4AA	8f	4c}	.	[4a	.
.	8e-	.	.	.	.
=85	=85	=85	=85	=85	=85
{4.BB-	8d	2B-	4r	4a]	2.dd
.	8c	.	.	.	.
.	8d	.	4.d	2g	.
8C	16c	.	.	.	.
.	16B-	.	.	.	.
2D}	2A}	2r	.	.	.
.	.	.	8d	.	.
.	.	.	4d	4f#}	4a
=86	=86	=86	=86	=86	=86
4GG	1G	4r	4d	1g	{2bn
4GG	.	2g	4d	.	.
{8C	.	.	{8e-	.	.
8D	.	.	8f	.	.
8E-	.	4G	8g	.	4b
8D	.	.	8f	.	.
=87	=87	=87	=87	=87	=87
8C	[1G	2c	8e-	1g	4cc}
8BB-	.	.	8d	.	.
8C	.	.	8e-	.	4g
16BB-	.	.	16d	.	.
16AA	.	.	16c	.	.
[2GG	.	4d	2B-}	.	4r
.	.	4d	.	.	4dd
=88	=88	=88	=88	=88	=88
1GG_	2G]	{8g	4B-	[1g	{8ee-
.	.	8a	.	.	8ff
.	.	8b-	4d	.	8gg
.	.	8a	.	.	8ff
.	[2G	8g	{4.b-	.	8ee-
.	.	8f	.	.	8dd
.	.	8g	.	.	8ee-
.	.	16f	8a	.	16dd
.	.	16e-	.	.	16cc
=89	=89	=89	=89	=89	=89
*M2/4	*M2/4	*M2/4	*M2/4	*M2/4	*M2/4
2GG}]	2G]	8d	8g	2g]	8bn
.	.	8c	16f	.	4cc
.	.	.	16e-	.	.
.	.	4d}	4d}	.	.
.	.	.	.	.	8b}
=90	=90	=90	=90	=90	=90
*M4/4	*M4/4	*M4/4	*M4/4	*M4/4	*M4/4
1C;	1G;	1c;	1en;	1g;	1cc;
==	==	==	==	==	==
*-	*-	*-	*-	*-	*-
!!!ENC: Mark Laxton
!!!EDD: Mark Laxton
!!!YEC: Mark Laxton, 1987
!!!EMD: Reference records added by D. Huron, 2001
!!!EEV: 1.1
